fs/briefcase_off_20_regular.svg

<svg viewBox="0 0 20 20" fill="none" xmlns="http://www.w3.org/2000/svg" height="1em" width="1em">
  <path d="M2.85355 2.14645C2.65829 1.95118 2.34171 1.95118 2.14645 2.14645C1.95118 2.34171 1.95118 2.65829 2.14645 2.85355L5.30071 6.00781C4.01317 6.10936 3 7.18636 3 8.49999V13.5C3 14.8807 4.11929 16 5.5 16H14.5C14.7412 16 14.9744 15.9658 15.195 15.9021L17.1464 17.8536C17.3417 18.0488 17.6583 18.0488 17.8536 17.8536C18.0488 17.6583 18.0488 17.3417 17.8536 17.1464L16.1153 15.4082C16.1153 15.4082 16.1153 15.4082 16.1153 15.4082L15.4041 14.697C15.4041 14.697 15.4041 14.697 15.4041 14.697L2.85355 2.14645ZM14.2929 15H5.5C4.67157 15 4 14.3284 4 13.5V8.49999C4 7.67156 4.67157 6.99999 5.5 6.99999H6.29288L14.2929 15ZM16 13.5C16 13.6169 15.9866 13.7307 15.9613 13.84L16.7376 14.6162C16.9055 14.2802 17 13.9011 17 13.5V8.49999C17 7.11927 15.8807 5.99999 14.5 5.99999H13V3.49999C13 3.22384 12.7761 2.99999 12.5 2.99999H7.5C7.22386 2.99999 7 3.22384 7 3.49999V4.87865L8 5.87865V3.99999H12V5.99999H8.12134L9.12134 6.99999H14.5C15.3284 6.99999 16 7.67156 16 8.49999V13.5Z" fill="#212121"/>
</svg>

<svg viewBox="0 0 20 20" fill="none" xmlns="http://www.w3.org/2000/svg" height="1em" width="1em">
  <path d="M2.854 2.146a.5.5 0 1 0-.708.708l3.155 3.154A2.5 2.5 0 0 0 3 8.5v5A2.5 2.5 0 0 0 5.5 16h9c.241 0 .474-.034.695-.098l1.951 1.952a.5.5 0 0 0 .708-.708l-1.739-1.738-.71-.711L2.853 2.147ZM14.293 15H5.5A1.5 1.5 0 0 1 4 13.5v-5A1.5 1.5 0 0 1 5.5 7h.793l8 8ZM16 13.5c0 .117-.013.23-.039.34l.777.776A2.49 2.49 0 0 0 17 13.5v-5A2.5 2.5 0 0 0 14.5 6H13V3.5a.5.5 0 0 0-.5-.5h-5a.5.5 0 0 0-.5.5v1.379l1 1V4h4v2H8.121l1 1H14.5A1.5 1.5 0 0 1 16 8.5v5Z" fill="#212121"/>
</svg>
